X: 24176
T: Lord Drighorn's Reel
R: jig
M: 6/8
K: Dmajor
A|d3 ABc|dAG FED|d3 Bcd|efd cBA|
d3 Adc|BAG FED|trGFG EAG FDD D2:|A|trF>ED AFD|
GBd dGB|trF>ED AGF|trE3 A,2 G|F>ED AFD|GBd dBG|
Ace gfe|fdd d2 A|F>ED AFD|GBd dBG|F>ED|AGF|
trE3 A,2 E|FED GFE|AGF BAG|Aag fge|fdd d2||

